<?xml version="1.0" encoding="UTF-8"?>
<map version="1.2" tiledversion="1.2.4" orientation="orthogonal" renderorder="right-down" width="130" height="70" tilewidth="32" tileheight="32" infinite="0" nextlayerid="4" nextobjectid="79">
 <tileset firstgid="1" name="Sci-Fi" tilewidth="32" tileheight="32" tilecount="84" columns="14">
  <image source="scifitiles-sheet.png" width="448" height="192"/>
 </tileset>
 <layer id="1" name="Background" width="130" height="70">
  <data encoding="csv">
18,18,18,18,18,18,18,18,18,18,18,18,18,18,18,18,18,18,18,18,18,18,18,18,18,18,18,18,18,18,18,18,18,18,18,18,18,18,18,18,18,18,18,18,18,18,18,18,18,18,18,18,18,18,18,18,18,18,18,18,18,18,18,18,18,18,18,18,18,18,18,18,18,18,18,18,18,18,18,18,18,18,18,18,18,18,18,18,18,18,18,18,18,18,18,18,18,18,18,18,18,18,18,18,18,18,18,18,18,18,18,18,18,18,18,18,18,18,18,18,18,18,18,18,18,18,18,18,18,18,
18,18,18,18,18,18,18,18,18,18,18,18,18,18,18,18,18,18,18,18,18,18,18,18,18,18,18,18,18,18,18,18,18,18,18,18,18,18,18,18,18,18,18,18,18,18,18,18,18,18,18,18,18,18,18,18,18,18,18,18,18,18,18,18,18,18,18,18,18,18,18,18,18,18,18,18,18,18,18,18,18,18,18,18,18,18,18,18,18,18,18,18,18,18,18,18,18,18,18,18,18,18,18,18,18,18,18,18,18,18,18,18,18,18,18,18,18,18,18,18,18,18,18,18,18,18,18,18,18,18,
18,18,18,18,18,18,18,18,18,18,18,18,18,18,18,18,18,18,18,18,18,18,18,18,18,18,18,18,18,18,18,18,18,18,18,18,18,18,18,18,18,18,18,18,18,18,18,18,18,18,18,18,18,18,18,18,18,18,18,18,18,18,18,18,18,18,18,18,18,18,18,18,18,18,18,18,18,18,18,18,18,18,18,18,18,18,18,18,18,18,18,18,18,18,18,18,18,18,18,18,18,18,18,18,18,18,18,18,18,18,18,18,18,18,18,18,18,18,18,18,18,18,18,18,18,18,18,18,18,18,
18,18,18,18,18,18,18,18,18,18,18,18,18,18,18,18,18,18,18,18,18,18,18,18,18,18,18,18,18,18,18,18,18,18,18,18,18,18,18,18,18,18,18,18,18,18,18,18,18,18,18,18,18,18,18,18,18,18,18,18,18,18,18,18,18,18,18,18,18,18,18,18,18,18,18,18,18,18,18,18,18,18,18,18,18,18,18,18,18,18,18,18,18,18,18,18,18,18,18,18,18,18,18,18,18,18,18,18,18,18,18,18,18,18,18,18,18,18,18,18,18,18,18,18,18,18,18,18,18,18,
18,18,18,18,18,18,18,18,18,18,18,18,18,18,18,18,18,18,18,18,18,18,18,18,18,18,18,18,18,18,18,18,18,18,18,18,18,18,18,18,18,18,18,18,18,18,18,18,18,18,18,18,18,18,18,18,18,18,18,18,18,18,18,18,18,18,18,18,18,18,18,18,18,18,18,18,18,18,18,18,18,18,18,18,18,18,18,18,18,18,18,18,18,18,18,18,18,18,18,18,18,18,18,18,18,18,18,18,18,18,18,18,18,18,18,18,18,18,18,18,18,18,18,18,18,18,18,18,18,18,
18,18,18,18,18,18,18,18,18,18,18,18,18,18,18,18,18,18,18,18,18,18,18,18,18,18,18,18,18,18,18,18,18,18,18,18,18,18,18,18,18,18,18,18,18,18,18,18,18,18,18,18,18,18,18,18,18,18,18,18,18,18,18,18,18,18,18,18,18,18,18,18,18,18,18,18,18,18,18,18,18,18,18,18,18,18,18,18,18,18,18,18,18,18,18,18,18,18,18,18,18,18,18,18,18,18,18,18,18,18,18,18,18,18,18,18,18,18,18,18,18,18,18,18,18,18,18,18,18,18,
18,48,49,49,49,49,49,49,49,49,49,49,49,49,49,49,49,49,49,49,49,49,49,49,49,49,49,49,49,49,49,49,49,49,49,49,49,49,49,49,49,49,49,49,49,49,49,49,49,49,49,49,49,49,49,49,49,49,49,49,49,49,49,49,49,49,49,49,49,49,49,49,49,49,49,49,49,49,49,49,49,49,49,49,49,49,49,49,49,49,49,49,49,49,49,49,49,49,49,49,49,49,49,49,49,49,49,49,49,49,49,49,49,49,49,49,49,49,49,49,49,49,49,49,49,49,49,49,50,18,
18,62,21,21,21,21,21,21,21,21,21,21,21,21,21,21,21,21,21,21,21,21,21,21,21,21,21,21,21,21,21,21,21,21,21,21,21,21,21,21,21,21,21,21,21,21,21,21,21,21,21,21,21,21,21,21,21,21,21,21,21,21,21,21,21,21,21,21,69,21,21,21,21,21,21,21,21,21,21,21,21,21,21,21,21,21,21,21,21,21,21,21,21,21,21,21,21,21,21,21,21,21,21,21,21,21,21,21,21,21,21,21,21,21,21,21,21,21,21,21,21,21,21,21,21,21,21,21,64,18,
18,62,21,21,21,21,21,21,21,21,21,21,21,21,21,21,21,21,21,21,21,21,21,21,21,21,21,21,21,21,21,21,21,21,21,21,21,21,21,21,21,21,21,21,21,21,21,21,21,21,21,21,21,21,21,21,21,21,21,21,21,21,21,21,21,21,21,21,69,21,21,21,21,21,21,21,21,21,21,21,21,21,21,21,21,21,21,21,21,21,21,21,21,21,21,21,21,21,21,21,21,21,21,21,21,21,21,21,21,21,21,21,21,21,21,21,21,21,21,21,21,21,21,21,21,21,21,21,64,18,
18,62,21,21,21,21,21,21,21,21,21,21,21,21,21,21,21,21,21,21,21,21,21,21,21,21,21,21,21,21,21,21,21,21,21,21,21,21,21,21,21,21,21,21,21,21,21,21,21,21,21,21,21,21,21,21,21,21,21,21,21,21,21,21,21,21,21,21,69,21,21,21,21,21,21,21,21,21,21,21,21,21,21,21,21,21,21,21,21,21,21,21,21,21,21,21,21,21,21,21,21,21,21,21,21,21,21,21,21,21,21,21,21,21,21,21,21,21,21,21,21,21,21,21,21,21,21,21,64,18,
18,62,21,21,21,21,21,21,21,21,21,21,21,21,21,21,21,21,21,21,21,21,21,21,21,21,21,21,21,21,21,21,21,21,21,21,21,21,21,21,21,21,21,21,21,21,21,21,21,21,21,21,21,21,21,21,21,21,21,21,21,21,21,21,21,21,21,21,69,21,21,21,21,21,21,21,21,21,21,21,21,21,21,21,21,21,21,21,21,21,21,21,21,21,21,21,21,21,21,21,21,21,21,21,21,21,21,21,21,21,21,21,21,21,21,21,21,21,21,21,21,21,21,21,21,21,21,21,64,18,
18,62,21,21,21,21,21,21,21,21,21,21,21,21,21,21,21,21,21,21,21,21,21,21,21,21,21,21,21,21,21,21,21,21,21,21,21,21,21,21,21,21,21,21,21,21,21,21,21,21,21,21,21,21,21,21,21,21,21,21,21,21,21,21,21,21,21,21,69,21,21,21,21,21,21,21,21,21,21,21,21,21,21,21,21,21,21,21,21,21,21,21,21,21,21,21,21,21,21,21,21,21,21,21,21,21,21,21,21,21,21,21,21,21,21,21,21,21,21,21,21,21,21,21,21,21,21,21,64,18,
18,62,21,21,21,21,21,21,21,21,21,21,21,21,21,21,21,21,21,21,21,21,21,21,21,21,21,21,21,21,21,21,21,21,21,21,21,21,21,21,21,21,21,21,21,21,21,21,21,21,21,21,21,21,21,21,21,21,21,21,21,21,21,21,21,21,21,21,69,21,21,21,21,21,21,21,21,21,21,21,21,21,21,21,21,21,21,21,21,21,21,21,21,21,21,21,21,21,21,21,21,21,21,21,21,21,21,21,21,21,21,21,21,21,21,21,21,21,21,21,21,21,21,21,21,21,21,21,64,18,
18,62,21,21,21,21,21,21,21,21,21,21,21,21,21,21,21,21,21,21,21,21,21,21,21,21,21,21,21,21,21,21,21,21,21,21,21,21,21,21,21,21,21,21,21,21,21,21,21,21,21,21,21,21,21,21,21,21,21,21,21,21,21,21,21,21,21,21,69,21,21,21,21,21,21,21,21,21,21,21,21,21,21,21,21,21,21,21,21,21,21,21,21,21,21,21,21,21,21,21,21,21,21,21,21,21,21,21,21,21,21,21,21,21,21,21,21,21,21,21,21,21,21,21,21,21,21,21,64,18,
18,62,21,21,21,21,21,21,21,21,21,21,21,21,21,21,21,21,21,21,21,21,21,21,21,21,21,21,21,21,21,21,21,21,21,21,21,21,21,21,21,21,21,21,21,21,21,21,21,21,21,21,21,21,21,21,21,21,21,21,21,21,21,21,21,21,21,21,69,21,21,21,21,21,21,21,21,21,21,21,21,21,21,21,21,21,21,21,21,21,21,21,21,21,21,21,21,21,21,21,21,21,21,21,21,21,21,21,21,21,21,21,21,21,21,21,21,21,21,21,21,21,21,21,21,21,21,21,64,18,
18,62,21,21,21,21,21,21,21,21,21,21,21,21,21,21,21,21,21,21,21,21,21,21,21,21,21,21,21,21,21,21,21,21,21,21,21,21,21,21,21,21,21,21,21,21,21,21,21,21,21,21,21,21,21,21,21,21,21,21,21,21,21,21,21,21,21,21,69,21,21,21,21,21,21,21,21,21,21,21,21,21,21,21,21,21,21,21,21,21,21,21,21,21,21,21,21,21,21,21,21,21,21,21,21,21,21,21,21,21,21,21,21,21,21,21,21,21,21,21,21,21,21,21,21,21,21,21,64,18,
18,62,21,21,21,21,21,21,21,21,21,21,21,21,21,21,21,21,21,21,21,21,21,21,21,21,21,21,21,21,21,21,21,21,21,21,21,21,21,21,21,21,21,21,21,21,21,21,21,21,21,21,21,21,21,21,21,21,21,21,21,21,21,21,21,21,21,21,69,21,21,21,21,21,21,21,21,21,21,21,21,21,21,21,21,21,21,21,21,21,21,21,21,21,21,21,21,21,21,21,21,21,21,21,21,21,21,21,21,21,21,21,21,21,21,21,21,21,21,21,21,21,21,21,21,21,21,21,64,18,
18,62,21,21,21,21,21,21,21,21,21,21,21,21,21,21,21,21,21,21,21,21,21,21,21,21,21,21,21,21,21,21,21,21,21,21,21,21,21,21,21,21,21,21,21,21,21,21,21,21,21,21,21,21,21,21,21,21,21,21,21,21,21,21,21,21,21,21,69,21,21,21,21,21,21,21,21,21,21,21,21,21,21,21,21,21,21,21,21,21,21,21,21,21,21,21,21,21,21,21,21,21,21,21,21,21,21,21,21,21,21,21,21,21,21,21,21,21,21,21,21,21,21,21,21,21,21,21,64,18,
18,62,21,21,21,21,21,21,21,21,21,21,21,21,21,21,21,21,21,21,21,21,21,21,21,21,21,21,21,21,21,21,21,21,21,21,21,21,21,21,21,21,21,21,21,21,21,21,21,21,21,21,21,21,21,21,21,21,21,21,21,21,21,21,21,21,21,21,69,21,21,21,21,21,21,21,21,21,21,21,21,21,21,21,21,21,21,21,21,21,21,21,21,21,21,21,21,21,21,21,21,21,21,21,21,21,21,21,21,21,21,21,21,21,21,21,21,21,21,21,21,21,21,21,21,21,21,21,64,18,
18,62,21,21,21,21,21,21,21,21,21,21,21,21,21,21,21,21,21,21,21,21,21,21,21,21,21,21,21,21,21,21,21,21,21,21,21,21,21,21,21,21,21,21,21,21,21,21,21,21,21,21,21,21,21,21,21,21,21,21,21,21,21,21,21,21,21,21,69,21,21,21,21,21,21,21,21,21,21,21,21,21,21,21,21,21,21,21,21,21,21,21,21,21,21,21,21,21,21,21,21,21,21,21,21,21,21,21,21,21,21,21,21,21,21,21,21,21,21,21,21,21,21,21,21,21,21,21,64,18,
18,62,21,21,21,21,21,21,21,21,21,21,21,21,21,21,21,21,21,21,21,21,21,21,21,21,21,21,21,21,21,21,21,21,21,21,21,21,21,21,21,21,21,21,21,21,21,21,21,21,21,21,21,21,21,21,21,21,21,21,21,21,21,21,21,21,21,21,69,21,21,21,21,21,21,21,21,21,21,21,21,21,21,21,21,21,21,21,21,21,21,21,21,21,21,21,21,21,21,21,21,21,21,21,21,21,21,21,21,21,21,21,21,21,21,21,21,21,21,21,21,21,21,21,21,21,21,21,64,18,
18,62,21,21,21,21,21,43,43,43,43,43,43,43,69,43,43,43,43,43,43,43,43,43,43,43,43,43,43,43,43,43,43,43,69,43,43,43,43,43,43,43,43,43,43,43,43,43,43,43,43,43,43,43,43,43,43,43,43,43,43,69,21,21,21,21,21,21,69,21,21,21,21,21,21,21,21,21,21,21,21,21,21,21,21,21,21,21,21,21,21,21,21,21,21,21,21,21,21,21,21,21,21,21,21,21,21,21,21,21,21,21,21,21,21,21,21,21,21,21,21,21,21,21,21,21,21,21,64,18,
18,62,21,21,21,21,21,21,21,21,21,21,21,21,69,21,21,21,21,21,21,21,21,21,21,21,21,21,21,21,21,21,21,21,69,21,21,21,21,21,21,21,21,21,21,21,21,21,21,21,21,21,21,21,21,21,21,21,21,21,21,69,21,21,21,21,21,21,69,21,21,21,21,21,21,21,21,21,21,21,21,21,21,21,21,21,21,21,21,21,21,21,21,21,21,21,21,21,21,21,21,21,21,21,21,21,21,21,21,21,21,21,21,21,21,21,21,21,21,21,21,21,21,21,21,21,21,21,64,18,
18,62,21,21,21,21,21,21,21,21,21,21,21,21,69,21,21,21,21,21,21,21,21,21,21,21,21,21,21,21,21,21,21,21,69,21,21,21,21,21,21,21,21,21,21,21,21,21,21,21,21,21,21,21,21,21,21,21,21,21,21,69,21,21,21,21,21,21,69,21,21,21,21,21,21,21,21,21,21,21,21,21,21,21,21,21,21,21,21,21,21,21,21,21,21,21,21,21,21,21,21,21,21,21,21,21,21,21,21,21,21,21,21,21,21,21,21,21,21,21,21,21,21,21,21,21,21,21,64,18,
18,62,21,21,21,21,21,21,21,21,21,21,21,21,69,21,21,21,21,21,69,21,21,21,21,21,21,21,21,21,21,21,21,21,69,21,21,21,21,21,21,21,21,21,21,21,21,21,21,21,21,21,21,21,21,21,21,21,21,21,21,69,21,21,21,21,21,21,69,21,21,21,21,21,21,21,21,21,21,21,21,21,21,21,21,21,21,21,21,21,21,21,21,21,21,21,21,21,21,21,21,21,21,21,21,21,21,21,21,21,21,21,21,21,21,21,21,21,21,21,21,21,21,21,21,21,21,21,64,18,
18,43,43,43,43,43,43,43,43,43,21,21,21,21,69,21,21,21,21,21,69,21,21,21,43,43,43,43,43,43,43,43,43,43,69,21,21,21,21,21,21,21,21,21,21,21,21,21,21,21,21,21,21,21,21,21,21,21,21,21,21,69,21,21,21,21,21,21,69,21,21,21,21,21,21,21,21,21,21,21,21,21,21,21,21,21,21,21,21,21,21,21,21,21,21,21,21,21,21,21,21,21,21,21,21,21,21,21,21,21,21,21,21,21,21,21,21,21,21,21,21,21,21,21,21,21,21,21,64,18,
18,62,21,21,21,21,21,21,21,21,21,21,21,21,69,21,21,21,21,21,69,21,21,21,21,21,21,21,21,21,21,21,21,21,69,21,21,21,21,21,21,21,21,21,21,21,69,43,43,43,43,43,43,43,43,43,69,21,21,21,21,69,21,21,21,21,21,21,69,21,21,21,21,21,21,21,21,21,21,21,21,21,21,21,21,21,21,21,21,21,21,21,21,21,21,21,21,21,21,21,21,21,21,21,21,21,21,21,21,21,21,21,21,21,21,21,21,21,21,21,21,21,21,21,21,21,21,21,64,18,
18,62,21,21,21,21,21,21,21,21,21,21,21,21,69,21,21,21,21,21,69,21,21,21,21,21,21,21,21,21,21,21,21,21,69,21,21,21,21,21,21,21,21,21,21,21,69,21,21,21,21,21,21,21,21,21,69,21,21,21,21,69,21,21,21,21,21,21,69,21,21,21,21,21,21,21,21,21,21,21,21,21,21,21,21,21,21,21,21,21,21,21,21,21,21,21,21,21,21,21,21,21,21,21,21,21,21,21,21,21,21,21,21,21,21,21,21,21,21,21,21,21,21,21,21,21,21,21,64,18,
18,62,21,21,21,21,21,21,21,21,21,21,21,21,69,21,21,21,21,21,69,21,21,21,21,21,21,21,21,21,21,21,21,21,69,21,21,21,21,21,21,21,21,21,21,21,69,21,21,21,21,21,21,21,21,21,69,21,21,21,21,69,21,21,21,21,21,21,69,21,21,21,21,21,21,21,21,21,21,21,21,21,21,21,21,21,21,21,21,21,21,21,21,21,21,21,21,21,21,21,21,21,21,21,21,21,21,21,21,21,21,21,21,21,21,21,21,21,21,21,21,21,21,21,21,21,21,21,64,18,
18,62,21,21,21,43,43,43,43,43,43,43,43,43,69,21,21,21,21,21,69,21,21,21,21,21,21,21,21,21,21,21,21,21,69,21,21,21,21,21,21,21,21,21,21,21,69,21,21,21,21,69,21,21,21,21,69,21,21,21,21,69,21,21,21,21,21,21,69,21,21,21,21,21,21,21,21,21,21,21,21,21,21,21,21,21,21,21,21,21,21,21,21,21,21,21,21,21,21,21,21,21,21,21,21,21,21,21,21,21,21,21,21,21,21,21,21,21,21,21,21,21,21,21,21,21,21,21,64,18,
18,62,21,21,21,21,21,21,21,21,21,21,21,21,69,21,21,21,21,21,69,43,43,43,43,43,43,43,43,43,43,21,21,21,69,21,21,21,69,43,43,43,43,43,43,43,69,21,21,21,21,69,21,21,21,21,69,21,21,21,21,69,21,21,21,21,21,21,69,21,21,21,21,21,21,21,21,21,21,21,21,21,21,21,21,21,21,21,21,21,21,21,21,21,21,21,21,21,21,21,21,21,21,21,21,21,21,21,21,21,21,21,21,21,21,21,21,21,21,21,21,21,21,21,21,21,21,21,64,18,
18,62,21,21,21,21,21,21,21,21,21,21,21,21,69,21,21,21,21,21,69,21,21,21,21,21,21,21,21,21,21,21,21,21,69,21,21,21,69,21,21,21,21,21,21,21,69,21,21,21,21,69,21,21,21,21,69,21,21,21,21,69,21,21,21,21,21,21,69,21,21,21,21,21,21,21,21,21,21,21,21,21,21,21,21,21,21,21,21,21,21,21,21,21,21,21,21,21,21,21,21,21,21,21,21,21,21,21,21,21,21,21,21,21,21,21,21,21,21,21,21,21,21,21,21,21,21,21,64,18,
18,62,21,21,21,21,21,21,21,21,21,21,21,21,69,21,21,21,21,21,69,21,21,21,21,21,21,21,21,21,21,21,21,21,69,21,21,21,69,21,21,21,21,21,21,21,69,21,21,21,21,69,21,21,21,21,69,21,21,21,21,69,21,21,21,21,21,21,69,21,21,21,21,21,21,21,21,21,21,21,21,21,21,21,21,21,21,21,21,21,21,21,21,21,21,21,21,21,21,21,21,21,21,21,21,21,21,21,21,21,21,21,21,21,21,21,21,21,21,21,21,21,21,21,21,21,21,21,64,18,
18,62,21,43,43,43,43,43,43,43,43,43,21,21,69,21,21,21,21,21,69,21,21,21,21,21,21,21,21,21,21,21,21,21,69,21,21,21,69,21,21,21,21,21,21,21,43,21,21,21,21,69,21,21,21,21,43,21,21,21,21,69,21,21,21,21,21,21,69,21,21,21,21,21,21,21,21,21,21,21,21,21,21,21,21,21,21,21,21,21,21,21,21,21,21,21,21,21,21,21,21,21,21,21,21,21,21,21,21,21,21,21,21,21,21,21,21,21,21,21,21,21,21,21,21,21,21,21,64,18,
18,62,21,21,21,21,21,21,21,21,21,21,21,21,69,21,21,21,21,21,69,21,21,21,21,21,21,21,21,21,21,21,21,21,69,21,21,21,69,21,21,21,21,21,21,21,21,21,21,21,21,69,21,21,21,21,21,21,21,21,21,69,21,21,21,21,21,21,69,21,21,21,21,21,21,21,21,21,21,21,21,21,21,21,21,21,21,21,21,21,21,21,21,21,21,21,21,21,21,21,21,21,21,21,21,21,21,21,21,21,21,21,21,21,21,21,21,21,21,21,21,21,21,21,21,21,21,21,64,18,
18,62,21,21,21,21,21,21,21,21,21,21,21,21,69,21,21,21,21,21,69,21,21,21,21,21,21,21,21,21,21,21,21,21,69,21,21,21,69,21,21,21,21,21,21,21,21,21,21,21,21,69,21,21,21,21,21,21,21,21,21,69,21,21,21,21,21,21,69,21,21,21,21,21,21,21,21,21,21,21,21,21,21,21,21,21,21,21,21,21,21,21,21,21,21,21,21,21,21,21,21,21,21,21,21,21,21,21,21,21,21,21,21,21,21,21,21,21,21,21,21,21,21,21,21,21,21,21,64,18,
18,62,21,21,21,21,21,21,21,21,21,21,21,21,69,21,21,21,21,21,69,21,21,21,21,21,43,43,43,43,43,43,43,43,69,21,21,21,69,21,21,21,43,43,43,43,43,43,43,43,43,43,43,43,43,43,43,43,43,43,43,69,21,21,21,21,21,21,69,21,21,21,21,21,21,21,21,21,21,21,21,21,21,21,21,21,21,21,21,21,21,21,21,21,21,21,21,21,21,21,21,21,21,21,21,21,21,21,21,21,21,21,21,21,21,21,21,21,21,21,21,21,21,21,21,21,21,21,64,18,
18,43,43,43,43,43,43,43,43,43,21,21,21,21,69,21,21,21,21,21,69,21,21,21,21,21,21,21,21,21,21,21,21,21,69,21,21,21,69,21,21,21,21,21,21,21,21,21,21,21,21,21,21,21,21,21,21,21,21,21,21,69,21,21,21,21,21,21,69,21,21,21,21,21,21,21,21,21,21,21,21,21,21,21,21,21,21,21,21,21,21,21,21,21,21,21,21,21,21,21,21,21,21,21,21,21,21,21,21,21,21,21,21,21,21,21,21,21,21,21,21,21,21,21,21,21,21,21,64,18,
18,62,21,21,21,21,21,21,21,21,21,21,21,21,69,21,21,21,21,21,69,21,21,21,21,21,21,21,21,21,21,21,21,21,69,21,21,21,69,21,21,21,21,21,21,21,21,21,21,21,21,21,21,21,21,21,21,21,21,21,21,69,21,21,21,21,21,21,69,21,21,21,21,21,21,21,21,21,21,21,21,21,21,21,21,21,21,21,21,21,21,21,21,21,21,21,21,21,21,21,21,21,21,21,21,21,21,21,21,21,21,21,21,21,21,21,21,21,21,21,21,21,21,21,21,21,21,21,64,18,
18,62,21,21,21,21,21,21,21,21,21,21,21,21,69,21,21,21,21,21,69,21,21,21,21,21,21,21,21,21,21,21,21,21,69,21,21,21,69,21,21,21,21,21,21,21,21,21,21,21,21,21,21,21,21,21,21,21,21,21,21,69,21,21,21,21,21,21,43,21,21,21,21,21,21,21,21,21,21,21,21,21,21,21,21,21,21,21,21,21,21,21,21,21,21,21,21,21,21,21,21,21,21,21,21,21,21,21,21,21,21,21,21,21,21,21,21,21,21,21,21,21,21,21,21,21,21,21,64,18,
18,62,21,21,21,21,21,21,21,21,21,21,21,21,69,21,21,21,21,21,69,21,21,21,21,21,21,21,21,21,21,21,21,21,69,21,21,21,69,21,21,21,21,21,21,69,43,43,43,43,43,43,43,43,69,43,43,43,21,21,21,69,21,21,21,21,21,21,21,21,21,21,21,21,21,21,21,21,21,21,21,21,21,21,21,21,21,21,21,21,21,21,21,21,21,21,21,21,21,21,21,21,21,21,21,21,21,21,21,21,21,21,21,21,21,21,21,21,21,21,21,21,21,21,21,21,21,21,64,18,
18,62,21,43,43,43,43,43,43,43,43,43,21,21,69,21,21,21,21,21,43,43,43,43,43,69,21,21,21,21,21,21,21,21,69,21,21,21,69,21,21,21,21,21,21,69,21,21,21,21,21,21,21,21,69,21,21,21,21,21,21,69,21,21,21,21,21,21,21,21,21,21,21,21,21,21,21,21,21,21,21,21,21,21,21,21,21,21,21,21,21,21,21,21,21,21,21,21,21,21,21,21,21,21,21,21,21,21,21,21,21,21,21,21,21,21,21,21,21,21,21,21,21,21,21,21,21,21,64,18,
18,62,21,21,21,21,21,21,21,21,21,21,21,21,69,21,21,21,21,21,21,21,21,21,21,69,21,21,21,21,21,21,21,21,43,21,21,21,69,21,21,21,21,21,21,69,21,21,21,21,21,21,21,21,69,21,21,21,21,21,21,69,21,21,21,21,21,21,21,21,21,21,21,21,21,21,21,21,21,21,21,21,21,21,21,21,21,21,21,21,21,21,21,21,21,21,21,21,21,21,21,21,21,21,21,21,21,21,21,21,21,21,21,21,21,21,21,21,21,21,21,21,21,21,21,21,21,21,64,18,
18,62,21,21,21,21,21,21,21,21,21,21,21,21,69,21,21,21,21,21,21,21,21,21,21,69,21,21,21,21,21,21,21,21,21,21,21,21,69,21,21,21,21,21,21,69,21,21,21,21,69,21,21,21,69,21,21,21,21,21,21,69,21,21,21,21,21,21,21,21,21,21,21,21,21,21,21,21,21,21,21,21,21,21,21,21,21,21,21,21,21,21,21,21,21,21,21,21,21,21,21,21,21,21,21,21,21,21,21,21,21,21,21,21,21,21,21,21,21,21,21,21,21,21,21,21,21,21,64,18,
18,62,21,21,21,21,21,21,21,21,21,21,21,21,69,43,43,43,43,43,43,43,21,21,21,69,21,21,21,21,21,21,21,21,21,21,21,21,69,21,21,21,21,21,21,69,21,21,21,21,69,21,21,21,69,21,21,21,21,21,21,69,21,21,21,21,21,21,21,21,21,21,21,21,21,21,21,21,21,21,21,21,21,21,21,21,21,21,21,21,21,21,21,21,21,21,21,21,21,21,21,21,21,21,21,21,21,21,21,21,21,21,21,21,21,21,21,21,21,21,21,21,21,21,21,21,21,21,64,18,
18,62,21,21,21,43,43,43,43,43,43,43,43,43,69,21,21,21,21,21,21,21,21,21,21,69,21,21,21,21,21,21,21,21,21,21,21,21,69,21,21,21,21,21,21,69,21,21,21,21,69,21,21,21,43,21,21,21,21,21,21,69,21,21,21,21,21,21,21,21,21,21,21,21,21,21,21,21,21,21,21,21,21,21,21,21,21,21,21,21,21,21,21,21,21,21,21,21,21,21,21,21,21,21,21,21,21,21,21,21,21,21,21,21,21,21,21,21,21,21,21,21,21,21,21,21,21,21,64,18,
18,62,21,21,21,21,21,21,21,21,21,21,21,21,69,21,21,21,21,21,21,21,21,21,21,69,43,43,43,43,43,43,43,43,43,43,43,43,43,43,43,43,43,43,43,43,21,21,21,21,69,21,21,21,21,21,21,21,21,21,21,69,21,21,21,21,21,21,21,21,21,21,21,21,21,21,21,21,21,21,21,21,21,21,21,21,21,21,21,21,21,21,21,21,21,21,21,21,21,21,21,21,21,21,21,21,21,21,21,21,21,21,21,21,21,21,21,21,21,21,21,21,21,21,21,21,21,21,64,18,
18,62,21,21,21,21,21,21,21,21,21,21,21,21,69,21,21,21,21,21,21,21,21,21,21,69,21,21,21,21,21,21,21,21,21,21,21,21,21,21,21,21,21,21,21,21,21,21,21,21,69,21,21,21,21,21,21,21,21,21,21,69,21,21,21,21,21,21,21,21,21,21,21,21,21,21,21,21,21,21,21,21,21,21,21,21,21,21,21,21,21,21,21,21,21,21,21,21,21,21,21,21,21,21,21,21,21,21,21,21,21,21,21,21,21,21,21,21,21,21,21,21,21,21,21,21,21,21,64,18,
18,62,21,21,21,21,21,21,21,21,21,21,21,21,69,21,21,21,43,43,43,43,43,43,43,69,21,21,21,21,21,21,21,21,21,21,21,21,21,21,21,21,21,21,21,21,21,21,21,21,69,21,21,21,21,21,21,21,21,21,21,69,21,21,21,21,21,21,21,21,21,21,21,21,21,21,21,21,21,21,21,21,21,21,21,21,21,21,21,21,21,21,21,21,21,21,21,21,21,21,21,21,21,21,21,21,21,21,21,21,21,21,21,21,21,21,21,21,21,21,21,21,21,21,21,21,21,21,64,18,
18,62,21,43,43,43,43,43,43,43,43,43,21,21,69,21,21,21,21,21,21,21,21,21,21,69,21,21,21,21,21,69,43,43,43,43,43,43,43,43,43,43,43,43,43,43,43,43,43,43,43,43,43,43,43,43,43,43,43,43,43,69,21,21,21,21,21,21,21,21,21,21,21,21,21,21,21,21,21,21,21,21,21,21,21,21,21,21,21,21,21,21,21,21,21,21,21,21,21,21,21,21,21,21,21,21,21,21,21,21,21,21,21,21,21,21,21,21,21,21,21,21,21,21,21,21,21,21,64,18,
18,62,21,21,21,21,21,21,21,21,21,21,21,21,69,21,21,21,21,21,21,21,21,21,21,69,21,21,21,21,21,69,21,21,21,21,21,21,21,21,21,21,21,21,21,21,21,21,21,21,21,21,21,21,21,21,21,21,21,21,21,69,21,21,21,21,21,21,21,21,21,21,21,21,21,21,21,21,21,21,21,21,21,21,21,21,21,21,21,21,21,21,21,21,21,21,21,21,21,21,21,21,21,21,21,21,21,21,21,21,21,21,21,21,21,21,21,21,21,21,21,21,21,21,21,21,21,21,64,18,
18,62,21,21,21,21,21,21,21,21,21,21,21,21,69,21,21,21,21,21,21,21,21,21,21,69,21,21,21,21,21,69,21,21,21,21,21,21,21,21,21,21,21,21,21,21,21,21,21,21,21,21,21,21,21,21,21,21,21,21,21,69,21,21,21,21,21,21,21,21,21,21,21,21,21,21,21,21,21,21,21,21,21,21,21,21,21,21,21,21,21,21,21,21,21,21,21,21,21,21,21,21,21,21,21,21,21,21,21,21,21,21,21,21,21,21,21,21,21,21,21,21,21,21,21,21,21,21,64,18,
18,62,21,21,21,21,21,21,21,21,21,21,21,21,69,43,43,43,43,43,43,43,21,21,21,69,21,21,21,21,21,69,21,21,21,21,21,21,21,21,21,21,21,21,21,21,21,21,21,21,21,21,21,21,21,21,21,21,21,21,21,69,21,21,21,21,21,21,21,21,21,21,21,21,21,21,21,21,21,21,21,21,21,21,21,21,21,21,21,21,21,21,21,21,21,21,21,21,21,21,21,21,21,21,21,21,21,21,21,21,21,21,21,21,21,21,21,21,21,21,21,21,21,21,21,21,21,21,64,18,
18,43,43,43,43,43,43,43,43,43,21,21,21,21,69,21,21,21,21,21,21,21,21,21,21,69,21,21,21,21,21,69,21,21,21,21,69,69,69,21,21,21,21,69,43,43,43,43,43,43,43,43,43,43,69,21,21,21,21,21,21,69,21,21,21,21,21,21,21,21,21,21,21,21,21,21,21,21,21,21,21,21,21,21,21,21,21,21,21,21,21,21,21,21,21,21,21,21,21,21,21,21,21,21,21,21,21,21,21,21,21,21,21,21,21,21,21,21,21,21,21,21,21,21,21,21,21,21,64,18,
18,62,21,21,21,21,21,21,21,21,21,21,21,21,69,21,21,21,21,21,21,21,21,21,21,69,21,21,21,21,21,69,21,21,21,21,69,69,69,21,21,21,21,69,21,21,21,21,21,21,21,21,21,21,69,21,21,21,21,21,21,69,21,21,21,21,21,21,21,21,21,21,21,21,21,21,21,21,21,21,21,21,21,21,21,21,21,21,21,21,21,21,21,21,21,21,21,21,21,21,21,21,21,21,21,21,21,21,21,21,21,21,21,21,21,21,21,21,21,21,21,21,21,21,21,21,21,21,64,18,
18,62,21,21,21,21,21,21,21,21,21,21,21,21,69,21,21,21,21,21,21,21,21,21,21,69,21,21,21,21,21,69,21,21,21,21,69,69,69,21,21,21,21,69,21,21,21,21,21,21,21,21,21,21,69,21,21,21,21,21,21,69,21,21,21,21,21,21,21,21,21,21,21,21,21,21,21,21,21,21,21,21,21,21,21,21,21,21,21,21,21,21,21,21,21,21,21,21,21,21,21,21,21,21,21,21,21,21,21,21,21,21,21,21,21,21,21,21,21,21,21,21,21,21,21,21,21,21,64,18,
18,62,21,21,21,21,21,21,21,21,21,21,21,21,69,21,21,21,21,21,21,21,21,21,21,69,21,21,21,21,21,69,21,21,21,21,69,69,69,21,21,21,21,69,21,21,21,21,21,21,21,21,21,21,69,21,21,21,21,21,21,69,21,21,21,21,21,21,21,21,21,21,21,21,21,21,21,21,21,21,21,21,21,21,21,21,21,21,21,21,21,21,21,21,21,21,21,21,21,21,21,21,21,21,21,21,21,21,21,21,21,21,21,21,21,21,21,21,21,21,21,21,21,21,21,21,21,21,64,18,
18,62,21,21,21,43,43,43,43,43,43,43,43,43,43,21,21,21,21,43,43,43,43,43,43,69,21,21,21,21,21,69,21,21,21,21,69,69,69,21,21,21,21,69,21,21,21,21,21,31,21,21,21,21,69,21,21,21,21,21,21,69,21,21,21,21,21,21,21,21,21,21,21,21,21,21,21,21,21,21,21,21,21,21,21,21,21,21,21,21,21,21,21,21,21,21,21,21,21,21,21,21,21,21,21,21,21,21,21,21,21,21,21,21,21,21,21,21,21,21,21,21,21,21,21,21,21,21,64,18,
18,62,21,21,21,21,21,21,21,21,21,21,21,21,21,21,21,21,21,21,21,21,21,21,21,69,21,21,21,21,21,43,21,21,21,21,43,43,43,21,21,21,21,69,21,21,21,21,21,69,21,21,21,21,69,21,21,21,21,21,21,69,21,21,21,21,21,21,21,21,21,21,21,21,21,21,21,21,21,21,21,21,21,21,21,21,21,21,21,21,21,21,21,21,21,21,21,21,21,21,21,21,21,21,21,21,21,21,21,21,21,21,21,21,21,21,21,21,21,21,21,21,21,21,21,21,21,21,64,18,
18,62,21,21,21,21,21,21,21,21,21,21,21,21,21,21,21,21,21,21,21,21,21,21,21,69,21,21,21,21,21,21,21,21,21,21,21,21,21,21,21,21,21,69,21,21,21,21,21,69,21,21,21,21,69,21,21,21,21,21,21,69,21,21,21,21,21,21,21,21,21,21,21,21,21,21,21,21,21,21,21,21,21,21,21,21,21,21,21,21,21,21,21,21,21,21,21,21,21,21,21,21,21,21,21,21,21,21,21,21,21,21,21,21,21,21,21,21,21,21,21,21,21,21,21,21,21,21,64,18,
18,62,21,21,21,21,21,21,21,21,21,21,21,21,21,21,21,21,21,21,21,21,21,21,21,69,21,21,21,21,21,21,21,21,21,21,21,21,21,21,21,21,21,69,21,21,21,21,21,69,21,21,21,21,69,21,21,21,21,21,21,69,21,21,21,21,21,21,21,21,21,21,21,21,21,21,21,21,21,21,21,21,21,21,21,21,21,21,21,21,21,21,21,21,21,21,21,21,21,21,21,21,21,21,21,21,21,21,21,21,21,21,21,21,21,21,21,21,21,21,21,21,21,21,21,21,21,21,64,18,
18,62,21,21,21,21,21,21,21,21,21,21,21,21,21,21,21,21,21,21,21,21,21,21,21,69,21,21,21,21,21,21,21,21,21,21,21,21,21,21,21,21,21,69,21,21,21,21,21,69,21,21,21,21,69,21,21,21,21,21,21,69,21,21,21,21,21,21,21,21,21,21,21,21,21,21,21,21,21,21,21,21,21,21,21,21,21,21,21,21,21,21,21,21,21,21,21,21,21,21,21,21,21,21,21,21,21,21,21,21,21,21,21,21,21,21,21,21,21,21,21,21,21,21,21,21,21,21,64,18,
18,43,43,43,43,43,43,43,43,43,43,43,43,43,43,43,43,43,43,43,43,43,43,43,43,43,43,43,43,43,43,43,43,43,43,43,43,43,43,43,43,43,43,43,21,21,21,21,21,69,21,21,21,21,45,21,21,21,21,21,21,69,21,21,21,21,21,21,21,21,21,21,21,21,21,21,21,21,21,21,21,21,21,21,21,21,21,21,21,21,21,21,21,21,21,21,21,21,21,21,21,21,21,21,21,21,21,21,21,21,21,21,21,21,21,21,21,21,21,21,21,21,21,21,21,21,21,21,64,18,
18,62,21,21,21,21,21,21,21,21,21,21,21,21,21,21,21,21,21,21,21,21,21,21,21,21,21,21,21,21,21,21,21,21,21,21,21,21,21,21,21,21,21,21,21,21,21,21,21,69,21,21,21,21,21,21,21,21,21,21,21,69,21,21,21,21,21,21,21,21,21,21,21,21,21,21,21,21,21,21,21,21,21,21,21,21,21,21,21,21,21,21,21,21,21,21,21,21,21,21,21,21,21,21,21,21,21,21,21,21,21,21,21,21,21,21,21,21,21,21,21,21,21,21,21,21,21,21,64,18,
18,76,77,77,77,77,77,77,77,77,77,77,77,77,77,77,77,77,77,77,77,77,77,77,77,77,77,77,77,77,77,77,77,77,77,77,77,77,77,77,77,77,77,77,77,77,77,77,77,43,77,77,77,77,77,77,77,77,77,77,77,43,77,77,77,77,77,77,77,77,77,77,77,77,77,77,77,77,77,77,77,77,77,77,77,77,77,77,77,77,77,77,77,77,77,77,77,77,77,77,77,77,77,77,77,77,77,77,77,77,77,77,77,77,77,77,77,77,77,77,77,77,77,77,77,77,77,77,78,18,
18,18,18,18,18,18,18,18,18,18,18,18,18,18,18,18,18,18,18,18,18,18,18,18,18,18,18,18,18,18,18,18,18,18,18,18,18,18,18,18,18,18,18,18,18,18,18,18,18,18,18,18,18,18,18,18,18,18,18,18,18,18,18,18,18,18,18,18,18,18,18,18,18,18,18,18,18,18,18,18,18,18,18,18,18,18,18,18,18,18,18,18,18,18,18,18,18,18,18,18,18,18,18,18,18,18,18,18,18,18,18,18,18,18,18,18,18,18,18,18,18,18,18,18,18,18,18,18,18,18,
18,18,18,18,18,18,18,18,18,18,18,18,18,18,18,18,18,18,18,18,18,18,18,18,18,18,18,18,18,18,18,18,18,18,18,18,18,18,18,18,18,18,18,18,18,18,18,18,18,18,18,18,18,18,18,18,18,18,18,18,18,18,18,18,18,18,18,18,18,18,18,18,18,18,18,18,18,18,18,18,18,18,18,18,18,18,18,18,18,18,18,18,18,18,18,18,18,18,18,18,18,18,18,18,18,18,18,18,18,18,18,18,18,18,18,18,18,18,18,18,18,18,18,18,18,18,18,18,18,18,
18,18,18,18,18,18,18,18,18,18,18,18,18,18,18,18,18,18,18,18,18,18,18,18,18,18,18,18,18,18,18,18,18,18,18,18,18,18,18,18,18,18,18,18,18,18,18,18,18,18,18,18,18,18,18,18,18,18,18,18,18,18,18,18,18,18,18,18,18,18,18,18,18,18,18,18,18,18,18,18,18,18,18,18,18,18,18,18,18,18,18,18,18,18,18,18,18,18,18,18,18,18,18,18,18,18,18,18,18,18,18,18,18,18,18,18,18,18,18,18,18,18,18,18,18,18,18,18,18,18,
18,18,18,18,18,18,18,18,18,18,18,18,18,18,18,18,18,18,18,18,18,18,18,18,18,18,18,18,18,18,18,18,18,18,18,18,18,18,18,18,18,18,18,18,18,18,18,18,18,18,18,18,18,18,18,18,18,18,18,18,18,18,18,18,18,18,18,18,18,18,18,18,18,18,18,18,18,18,18,18,18,18,18,18,18,18,18,18,18,18,18,18,18,18,18,18,18,18,18,18,18,18,18,18,18,18,18,18,18,18,18,18,18,18,18,18,18,18,18,18,18,18,18,18,18,18,18,18,18,18,
18,18,18,18,18,18,18,18,18,18,18,18,18,18,18,18,18,18,18,18,18,18,18,18,18,18,18,18,18,18,18,18,18,18,18,18,18,18,18,18,18,18,18,18,18,18,18,18,18,18,18,18,18,18,18,18,18,18,18,18,18,18,18,18,18,18,18,18,18,18,18,18,18,18,18,18,18,18,18,18,18,18,18,18,18,18,18,18,18,18,18,18,18,18,18,18,18,18,18,18,18,18,18,18,18,18,18,18,18,18,18,18,18,18,18,18,18,18,18,18,18,18,18,18,18,18,18,18,18,18
</data>
 </layer>
 <objectgroup id="2" name="CollisionObjects">
  <object id="1" name="LowerRightCorner" x="4127" y="2209" width="33" height="31"/>
  <object id="2" name="LowerLeftCorner" x="0" y="2208" width="32" height="32"/>
  <object id="3" name="UpperRightCorner" x="4127.33" y="0" width="32.6667" height="32.6667"/>
  <object id="4" name="UpperLeftCorner" x="0" y="0" width="32" height="31.6768"/>
  <object id="6" name="leftborder" x="32.0435" y="2207.33" width="3969.29" height="32.75"/>
  <object id="9" name="rightborder" x="4128.5" y="164" width="31" height="1906" visible="0"/>
  <object id="10" name="leftborder" x="0" y="30.3333" width="32" height="2049.67"/>
  <object id="11" x="27.667" y="0.0833333" width="4100.33" height="31.8125"/>
  <object id="16" x="224" y="671.333" width="1760" height="32"/>
  <object id="17" x="1950" y="702" width="32" height="1378"/>
  <object id="18" x="1088" y="700" width="32" height="672"/>
  <object id="19" x="768" y="800" width="320" height="32"/>
  <object id="20" x="672" y="960" width="320" height="32"/>
  <object id="21" x="832" y="1184" width="256"/>
  <object id="22" x="832" y="1152" width="256" height="32"/>
  <object id="23" x="832" y="1472" width="608" height="32"/>
  <object id="24" x="1440" y="1280" width="32" height="224"/>
  <object id="26" x="1472" y="1280" width="384" height="32"/>
  <object id="27" x="1728" y="1312" width="32" height="160"/>
  <object id="29" x="992" y="1568" width="960" height="32"/>
  <object id="30" x="992" y="1600" width="32" height="288"/>
  <object id="32" x="1152" y="1696" width="96" height="192"/>
  <object id="33" x="1568" y="1824" width="32" height="384"/>
  <object id="34" x="1728" y="1696" width="32" height="320"/>
  <object id="35" x="1376" y="1696" width="32" height="320"/>
  <object id="36" x="1408" y="1696" width="320" height="32"/>
  <object id="37" x="32" y="1984" width="1344" height="32"/>
  <object id="38" x="800" y="1312" width="32" height="672"/>
  <object id="41" x="1216" y="960" width="32" height="512"/>
  <object id="42" x="1248" y="960" width="224" height="32"/>
  <object id="43" x="1472" y="832" width="32" height="256"/>
  <object id="44" x="1504" y="832" width="288" height="32"/>
  <object id="45" x="1792" y="832" width="32" height="256"/>
  <object id="46" x="1632" y="928" width="32" height="224"/>
  <object id="47" x="1344" y="1152" width="608" height="32"/>
  <object id="48" x="640" y="768" width="32" height="576"/>
  <object id="49" x="672" y="1312" width="128" height="32"/>
  <object id="50" x="608" y="1824" width="192" height="32"/>
  <object id="51" x="160" y="1824" width="320" height="32"/>
  <object id="52" x="448" y="704" width="32" height="1120"/>
  <object id="53" x="32" y="800" width="288" height="32"/>
  <object id="54" x="160" y="928" width="288" height="32" visible="0"/>
  <object id="56" x="96" y="1056" width="288" height="32"/>
  <object id="57" x="32" y="1184" width="288" height="32"/>
  <object id="61" x="96" y="1312" width="288" height="32"/>
  <object id="62" x="160" y="1440" width="288" height="32"/>
  <object id="63" x="96" y="1568" width="288" height="32"/>
  <object id="64" x="32" y="1696" width="288" height="32"/>
  <object id="65" x="480" y="1664" width="224" height="32"/>
  <object id="67" x="576" y="1536" width="224" height="32"/>
  <object id="69" x="480" y="1408" width="224" height="32"/>
  <object id="71" x="1600" y="1376" width="32" height="192"/>
  <object id="72" x="2176" y="128" width="32" height="1152"/>
  <object id="73" x="0" y="2080" width="32" height="128"/>
  <object id="74" x="4000" y="2208" width="128" height="32"/>
  <object id="75" x="4127.67" y="32.6667" width="32" height="2175"/>
  <object id="77" x="32" y="32" width="160" height="160"/>
  <object id="78" x="32" y="2080" width="128" height="128"/>
 </objectgroup>
</map>
